brandFactory_export/1.Light/Electrocardiograma_1Light.svg

<?xml version="1.0" encoding="UTF-8"?>
<svg width="24px" height="24px" viewBox="0 0 24 24" version="1.1" xmlns="http://www.w3.org/2000/svg" xmlns:xlink="http://www.w3.org/1999/xlink">
    <title>1.Light/Electrocardiograma_1Light</title>
    <g id="Symbols" stroke="none" stroke-width="1" fill="none" fill-rule="evenodd">
        <g id="1.Light/Electrocardiograma_1Light" fill="#5CB615" fill-rule="nonzero">
            <path d="M18.4705882,15.2084034 C17.2235294,17.1277311 16.2319328,18.3613445 14.5445378,20.092437 L14.5344538,20.0991597 L14.5042017,20.1361345 C14.1815126,20.4655462 13.7109244,20.9092437 13.3647059,21.1579832 C13.0386555,21.389916 12.6756303,21.5512605 12.2957983,21.6319328 C12.2117647,21.6521008 12.1176471,21.6655462 12.0235294,21.6689076 L11.9966387,21.6689076 L11.8857143,21.6722689 L11.8084034,21.6689076 L11.7915966,21.6689076 C11.6941176,21.6621849 11.5932773,21.6487395 11.4957983,21.6252101 C11.1193277,21.5411765 10.7630252,21.3798319 10.4504202,21.1512605 C9.99663866,20.8285714 9.41848739,20.2470588 9.30756303,20.1294118 C7.59327731,18.3747899 6.59159664,17.1310924 5.33781513,15.2016807 C5.00504202,14.6840336 4.68907563,14.1596639 4.38991597,13.6218487 L5.36134454,13.6218487 C5.57983193,13.6218487 5.77478992,13.4806723 5.83865546,13.2722689 L7.6907563,7.34621849 L9.80504202,17.8336134 C9.85210084,18.0655462 10.0571429,18.2336134 10.2957983,18.2336134 C10.5142857,18.2336134 10.7092437,18.092437 10.7764706,17.8806723 L12.0537815,13.7260504 L13.4957983,13.7260504 C13.7176471,13.7260504 13.912605,13.5815126 13.9764706,13.3697479 L14.9647059,10.0319328 L16.1546218,13.3932773 C16.2252101,13.5915966 16.4134454,13.7260504 16.6252101,13.7260504 L19.3613445,13.7260504 C19.0756303,14.2201681 18.789916,14.7142857 18.4705882,15.2084034 M2.16134454,8.15966387 C1.6302521,5.94453782 2.02689076,4.13613445 3.28403361,3.06722689 C4.02016807,2.44201681 5.03529412,2.06554622 6.14789916,2.00840336 C6.2487395,2.00504202 6.34957983,2.00168067 6.45042017,2.00168067 C7.56638655,2.00168067 8.72941176,2.31764706 9.80840336,2.9092437 C10.2588235,3.15798319 10.7193277,3.42016807 11.2436975,3.72941176 C11.4420168,3.84033613 11.6705882,3.90084034 11.9058824,3.90084034 C12.1310924,3.90084034 12.3529412,3.84705882 12.5815126,3.72268908 C13.0521008,3.44369748 13.5226891,3.17478992 14,2.91260504 C15.0789916,2.3210084 16.2386555,2.00504202 17.3579832,2.00504202 C17.4588235,2.00504202 17.5596639,2.00840336 17.6605042,2.01176471 C18.7697479,2.06890756 19.7882353,2.44537815 20.5210084,3.07058824 C21.7747899,4.13613445 22.1747899,5.94453782 21.6436975,8.16302521 C21.2840336,9.65210084 20.6823529,11.1882353 19.8857143,12.7411765 L16.9781513,12.7411765 L15.3915966,8.25714286 C15.3243697,8.0487395 15.1260504,7.91092437 14.907563,7.92436975 C14.692437,7.93109244 14.5008403,8.07226891 14.4403361,8.28067227 L13.1193277,12.7411765 L11.6806723,12.7411765 C11.4621849,12.7411765 11.2672269,12.8823529 11.2,13.0941176 L10.3932773,15.7159664 L8.28235294,5.24537815 C8.23529412,5.02016807 8.04369748,4.85882353 7.81512605,4.8487395 C7.6,4.81176471 7.38151261,4.97983193 7.31428571,5.19831933 L4.99159664,12.6403361 L3.86890756,12.6403361 C3.09915966,11.1176471 2.51428571,9.61848739 2.16134454,8.15966387 M23.1563025,12.7378151 L20.9983193,12.7378151 C21.7176471,11.2655462 22.2722689,9.81008403 22.6151261,8.39159664 C23.2369748,5.79663866 22.7260504,3.63865546 21.1731092,2.31764706 C20.2722689,1.5512605 19.0420168,1.0907563 17.7109244,1.02352941 C17.5932773,1.01680672 17.4722689,1.01344538 17.3546218,1.01344538 C16.0638655,1.01344538 14.7428571,1.36638655 13.512605,2.04537815 C13.0252101,2.31428571 12.5445378,2.58991597 12.0672269,2.87226891 C12.0168067,2.89915966 11.9596639,2.91260504 11.902521,2.91260504 C11.8453782,2.91260504 11.7848739,2.89915966 11.7344538,2.87226891 C11.2605042,2.58319328 10.7764706,2.30756303 10.292437,2.04201681 C9.05882353,1.36638655 7.73781513,1.01008403 6.44705882,1.01008403 C6.32941176,1.01008403 6.21176471,1.01344538 6.09411765,1.02016807 C4.76638655,1.08739496 3.53613445,1.54453782 2.63193277,2.31428571 C1.0789916,3.63529412 0.564705882,5.79327731 1.18655462,8.38823529 C1.52268908,9.77647059 2.05714286,11.1983193 2.74957983,12.6336134 L0.531092437,12.6336134 C0.255462185,12.6336134 0.0336134454,12.8554622 0.0302521008,13.1310924 C0.0302521008,13.4067227 0.255462185,13.6285714 0.531092437,13.6285714 L3.24705882,13.6285714 C3.62352941,14.3310924 4.0302521,15.0369748 4.4907563,15.7462185 C5.78151261,17.7361345 6.81680672,19.0201681 8.58151261,20.8252101 C8.75294118,21 9.3512605,21.5983193 9.85882353,21.9613445 C10.2957983,22.2739496 10.789916,22.492437 11.2806723,22.5966387 C11.4218487,22.6302521 11.5731092,22.6504202 11.7277311,22.6605042 L11.7378151,22.6605042 L11.7478992,22.6638655 L11.8789916,22.6672269 L11.9193277,22.6672269 C11.9697479,22.6672269 12.0134454,22.6672269 12.0537815,22.6638655 L12.0638655,22.6605042 L12.0739496,22.6605042 C12.2285714,22.6504202 12.3798319,22.6302521 12.5210084,22.5966387 C13.0151261,22.4957983 13.5058824,22.2739496 13.9428571,21.9613445 C14.4504202,21.5983193 15.0487395,21 15.2201681,20.8252101 C15.2336134,20.8117647 15.2470588,20.794958 15.2605042,20.7815126 C17.0016807,18.9966387 18.0268908,17.7193277 19.3109244,15.7462185 C19.7478992,15.0705882 20.1411765,14.3983193 20.5042017,13.7294118 L23.1563025,13.7294118 C23.4319328,13.7294118 23.6571429,13.507563 23.6571429,13.2319328 C23.6571429,12.9563025 23.4319328,12.7344538 23.1563025,12.7378151" id="Electrocardiograma_1Light"></path>
        </g>
    </g>
</svg>

<svg width="24" height="24" viewBox="0 0 24 24" xmlns="http://www.w3.org/2000/svg"><path d="M18.47 15.208c-1.246 1.92-2.238 3.153-3.925 4.884l-.01.007-.03.037c-.323.33-.794.773-1.14 1.022-.326.232-.69.393-1.07.474a1.4 1.4 0 01-.271.037h-.027l-.111.003-.078-.003h-.016a1.796 1.796 0 01-.296-.044 2.809 2.809 0 01-1.046-.474c-.453-.322-1.032-.904-1.142-1.022-1.715-1.754-2.716-2.998-3.97-4.927a28.871 28.871 0 01-.948-1.58h.971a.498.498 0 00.478-.35L7.69 7.346l2.114 10.488a.5.5 0 00.49.4.504.504 0 00.481-.353l1.278-4.155h1.442a.501.501 0 00.48-.356l.989-3.338 1.19 3.361a.5.5 0 00.47.333h2.736c-.285.494-.571.988-.89 1.482M2.16 8.16c-.53-2.215-.134-4.024 1.123-5.093.736-.625 1.751-1.001 2.864-1.059.1-.003.202-.006.302-.006 1.116 0 2.28.316 3.358.907.45.249.911.511 1.436.82a1.359 1.359 0 001.338-.006c.47-.28.94-.548 1.418-.81 1.079-.592 2.239-.908 3.358-.908.1 0 .202.003.303.007 1.109.057 2.127.433 2.86 1.059 1.254 1.065 1.654 2.874 1.123 5.092-.36 1.49-.962 3.025-1.758 4.578h-2.908l-1.586-4.484a.479.479 0 00-.484-.333.5.5 0 00-.468.357l-1.32 4.46h-1.44a.504.504 0 00-.48.353l-.807 2.622-2.11-10.47a.498.498 0 00-.468-.397c-.215-.037-.433.13-.5.35L4.991 12.64H3.869c-.77-1.522-1.355-3.022-1.708-4.48m20.995 4.578h-2.158c.72-1.472 1.274-2.928 1.617-4.346.622-2.595.111-4.753-1.442-6.074-.9-.767-2.131-1.227-3.462-1.294a6.304 6.304 0 00-.356-.01c-1.291 0-2.612.352-3.842 1.031-.488.27-.968.545-1.446.827a.364.364 0 01-.333 0c-.473-.289-.958-.564-1.442-.83C9.06 1.366 7.738 1.01 6.447 1.01c-.118 0-.235.003-.353.01-1.328.067-2.558.525-3.462 1.294C1.079 3.635.565 5.794 1.187 8.388c.336 1.388.87 2.81 1.563 4.246H.53a.501.501 0 00-.5.497.5.5 0 00.5.498h2.716a29.12 29.12 0 001.244 2.117c1.29 1.99 2.326 3.274 4.09 5.08.172.174.77.772 1.278 1.135.437.313.93.531 1.422.636.14.033.292.053.447.064h.01l.01.003.131.003h.04c.05 0 .094 0 .135-.003l.01-.003h.01c.155-.01.306-.03.447-.064.494-.101.985-.323 1.422-.636.507-.363 1.106-.961 1.277-1.136.014-.013.027-.03.04-.043 1.742-1.785 2.767-3.063 4.05-5.036.438-.675.831-1.348 1.194-2.017h2.652a.5.5 0 00.501-.497.494.494 0 00-.5-.494" fill="#5CB615" fill-rule="nonzero"/></svg>
